X: 1208
T: Kapılır Her Gören
C: Küçük Mehmed Ağa
O: Turkey
F: http://compmusic.upf.edu/node/140
N: suzinak--agirsemai--aksaksemai--kapilir_her--kucuk_mehmet_aga
N: makam= suzinak
N: form= agirsemai
N: usul= aksaksemai = 10/8
M: 10/8
L: 1/16
K: C _1/4B _7/8e ^f 
Q: 1/4=132
%%MIDI tuningsystem comma53
d6f2 {g}fed2 {e}dcBc B2c2  | d4 e2f2 edgf edd4z2  | 
w:  Ka pı *  *  *  lır  *  *  *  her   |  *  *  *  *  *  gö *  ren  *  ol   | 
e3d c2f2 e2d2 c2B4z2  | A2{B}AB c2d2 {e}dcB2 {c}BAA4G2  | 
w:  şûh_ *  *  i  *  *  ci han   |  â *  *  *  *  *  *  *  *  şûb_ *  *  *  i  yâr_  | 
B3A G2d3edc Bcd4z2  | d4 _b2a2 g2f2 edgf edc2  | 
w:  ey  *  *  *  *  câ *  *  *  nım    |  Bî  ka ra *  *  *  *  rım   | 
dcBc d2e3df2 edd4z2  | f3e d2a2 {b}agg2 {a}gfgf edc2  | 
w:  sabr_ *  *  *  *  *  *  e de *  mem   |  â *  *  *  *  *  *  şı *  kam_ *  ol   | 
dcBc d2e3dgf ede4z2  | e3d c2f2 eddc {d}cBB4z2  | 
w:  mâh  *  *  *  *  *  *  yü *  zü *  ne   |  â *  *  hû  *  *  gö *  *  zü *  ne   | 
A2{B}AB c2d2 {e}dcB2 {c}BAA4G2  | \
w:  şi *  *  *  *  rin  *  *  *  sö *  zü *  ne  yâr_  | 
B3A G2d3edc Bcd4z2  | 
w:  ey  *  *  *  *  câ *  *  *  nım    | 
d4 _b2a2 g2f2 edgf edc2  | dcBc d2e3df2 edd4z2  | 
w:  Bî  ka ra *  *  *  *  rım   |  sabr_ *  *  *  *  *  *  e de *  mem   | 
f3e d2a2 {b}agg2 {a}gfgf edc2  | dcBc d2e3dgf ede4z2  | 
w:  â *  *  *  *  *  *  şı *  kam_ *  ol   |  mâh  *  *  *  *  *  *  yü *  zü *  ne   | 
e3d c2f2 eddc {d}cBB4z2  | A2{B}AB c2d2 {e}dcB2 {c}BAA4G2  | 
w:  â *  *  hû  *  *  gö *  *  zü *  ne   |  şi *  *  *  *  rin  *  *  *  sö *  zü *  ne  yâr_  | 
B3A G2g4fg afg4z2  | f2g4g3a_ba gfg4z2  | \
w:  ey  *  *  *  câ *  *  *  nım    |  Çâk  *  *  *  *  *  *  *  kıl   | 
c'6c'3_bb2 {c'}bab3/2a/ gfe2  | 
w:  per *  *  de  *  i  *  na  | 
f2g2 b_aa2 {b}agg2 {=a}gfgf edc2  | \
w:  mu *  *  *  *  *  *  *  su *  nu  *  Fâ  | 
dcBc d2e2 {f}edg2 {a}gfgf efed  | 
w:  zıl  *  *  *  *  *  *  *  *  gi *  bi  *  ol   | 
d6de dcdc Bcd4z2  | d4 _b2a2 g2f2 edgf edc2  | 
w:  *  *  *  *  *  câ *  *  *  nım    |  Bî  ka ra *  *  *  *  rım   | 
dcBc d2e3df2 edd4z2  | f3e d2a2 {b}agg2 {a}gfgf edc2  | 
w:  sabr_ *  *  *  *  *  *  e de *  mem   |  â *  *  *  *  *  *  şı *  kam_ *  ol   | 
dcBc d2e3dgf ede4z2  | e3d c2f2 eddc {d}cBB4z2  | 
w:  mâh  *  *  *  *  *  *  yü *  zü *  ne   |  â *  *  hû  *  *  gö *  *  zü *  ne   | 
A2{B}AB c2d2 {e}dcB2 {c}BAA4G2  | \
w:  şi *  *  *  *  rin  *  *  *  sö *  zü *  ne  yâr_  | 
B3A G2d3edc Bcd4z2  | 
w:  ey  *  *  *  *  câ *  *  *  nım    | 
d4 _b2a2 g2f2 edgf edc2  | dcBc d2e3df2 edd4z2  | 
w:  Bî  ka ra *  *  *  *  rım   |  sabr_ *  *  *  *  *  *  e de *  mem   | 
f3e d2a2 {b}agg2 {a}gfgf edc2  | dcBc d2e3dgf ede4z2  | 
w:  â *  *  *  *  *  *  şı *  kam_ *  ol   |  mâh  *  *  *  *  *  *  yü *  zü *  ne   | 
e3d c2f2 eddc {d}cBB4z2  | A2{B}AB c2d2 {e}dcB2 {c}BAA4G2  | 
w:  â *  *  hû  *  *  gö *  *  zü *  ne   |  şi *  *  *  *  rin  *  *  *  sö *  zü *  ne  yâr_  | 
B3A G2|
w:  ey   | 


